X: 442
T: Buffalo Gals
C:Benny Thomasson version
B: jims roots
M:C|
L:1/8
Q: 1/4=100
K:D
V:1 
|:(3A,B,C | "D"DDED FDGA | BFAG F2 (3FGA | "A7"AFGF EFGA | "D"BGAB AGFE |
DFED FDGA | BGAG F2 (3FGA | "A7"ABAF EGEC | "D"D2DE D2 :|
|: (3ABc | decd BdAF | BFA[GA] [F2A] (3FGA | "A7"AFGF EFGA | "D"BGAB A2Bc |
decd BdAF | B^GA=G F2 (3FGA | "A7"ABAF GECE | "D"D3ED2 :|
% abcbook-tune_id 6298c245ebfbbeab6ca0ac29


% abcbook-boost 0
% abcbook-tablature 
% abcbook-transpose 
% abcbook-lastupdated 1654178373549
% abcbook-soundfonts 
% abcbook-repeats 1


